uv/themes/uv-en-gb-theme/assets/share.svg

<?xml version="1.0" encoding="UTF-8" standalone="no"?>
<svg width="21px" height="23px" viewBox="0 0 21 23" version="1.1" xmlns="http://www.w3.org/2000/svg" xmlns:xlink="http://www.w3.org/1999/xlink">
    <!-- Generator: Sketch 50.2 (55047) - http://www.bohemiancoding.com/sketch -->
    <title>button__share</title>
    <desc>Created with Sketch.</desc>
    <defs>
        <polygon id="path-1" points="0 0.00011499999 21 0.00011499999 21 22.908 0 22.908"></polygon>
    </defs>
    <g id="Fina-Designs-17th-June-2018" stroke="none" stroke-width="1" fill="none" fill-rule="evenodd">
        <g id="mainPlayer-desktop-wide-view" transform="translate(-986.000000, -560.000000)">
            <g id="button/share" transform="translate(986.000000, 560.000000)">
                <g id="Page-1">
                    <mask id="mask-2" fill="white">
                        <use xlink:href="#path-1"></use>
                    </mask>
                    <g id="Clip-2"></g>
                    <path d="M17.5,16.192115 C16.6133333,16.192115 15.82,16.537115 15.2133333,17.077615 L6.895,12.305115 C6.95333333,12.040615 7,11.776115 7,11.500115 C7,11.224115 6.95333333,10.959615 6.895,10.695115 L15.12,5.968615 C15.75,6.543615 16.5783333,6.900115 17.5,6.900115 C19.4366667,6.900115 21,5.359115 21,3.450115 C21,1.541115 19.4366667,0.00011499999 17.5,0.00011499999 C15.5633333,0.00011499999 14,1.541115 14,3.450115 C14,3.726115 14.0466667,3.990615 14.105,4.255115 L5.88,8.981615 C5.25,8.406615 4.42166667,8.050115 3.5,8.050115 C1.56333333,8.050115 0,9.591115 0,11.500115 C0,13.409115 1.56333333,14.950115 3.5,14.950115 C4.42166667,14.950115 5.25,14.593615 5.88,14.018615 L14.1866667,18.802615 C14.1283333,19.042965 14.0933333,19.297115 14.0933333,19.550115 C14.0933333,21.401615 15.6216667,22.908115 17.5,22.908115 C19.3783333,22.908115 20.9066667,21.401615 20.9066667,19.550115 C20.9066667,17.698615 19.3783333,16.192115 17.5,16.192115" id="Fill-1" fill="#FFFFFF" mask="url(#mask-2)"></path>
                </g>
            </g>
        </g>
    </g>
</svg>

<?xml version="1.0" encoding="UTF-8" standalone="no"?>
<svg
   xmlns:dc="http://purl.org/dc/elements/1.1/"
   xmlns:cc="http://creativecommons.org/ns#"
   xmlns:rdf="http://www.w3.org/1999/02/22-rdf-syntax-ns#"
   xmlns:svg="http://www.w3.org/2000/svg"
   xmlns="http://www.w3.org/2000/svg"
   xmlns:xlink="http://www.w3.org/1999/xlink"
   xmlns:sodipodi="http://sodipodi.sourceforge.net/DTD/sodipodi-0.dtd"
   xmlns:inkscape="http://www.inkscape.org/namespaces/inkscape"
   id="svg4210"
   version="1.1"
   viewBox="0 0 30 30"
   height="30"
   width="30"
   sodipodi:docname="share.svg"
   inkscape:version="0.92.3 (2405546, 2018-03-11)">
  <sodipodi:namedview
     pagecolor="#000000"
     bordercolor="#666666"
     borderopacity="1"
     objecttolerance="10"
     gridtolerance="10"
     guidetolerance="10"
     inkscape:pageopacity="0"
     inkscape:pageshadow="2"
     inkscape:window-width="1920"
     inkscape:window-height="1017"
     id="namedview4612"
     showgrid="false"
     inkscape:zoom="7.8666667"
     inkscape:cx="15"
     inkscape:cy="15"
     inkscape:window-x="2552"
     inkscape:window-y="-8"
     inkscape:window-maximized="1"
     inkscape:current-layer="svg4210" />
  <metadata
     id="metadata4230">
    <rdf:RDF>
      <cc:Work
         rdf:about="">
        <dc:format>image/svg+xml</dc:format>
        <dc:type
           rdf:resource="http://purl.org/dc/dcmitype/StillImage" />
        <dc:title>button__share</dc:title>
      </cc:Work>
    </rdf:RDF>
  </metadata>
  <!-- Generator: Sketch 50.2 (55047) - http://www.bohemiancoding.com/sketch -->
  <title
     id="title4212">button__share</title>
  <desc
     id="desc4214">Created with Sketch.</desc>
  <defs
     id="defs4216">
    <polygon
       points="0,0.00011499999 21,0.00011499999 21,22.908 0,22.908 "
       id="path-1" />
    <polygon
       id="path-1-1"
       points="0,0.00011499999 21,0.00011499999 21,22.908 0,22.908 " />
  </defs>
  <g
     transform="matrix(0.96038095,0,0,0.96036319,4.6617627,3.99989)"
     style="fill:#ffffff;fill-rule:evenodd;stroke:none;stroke-width:1"
     id="Fina-Designs-17th-June-2018-1">
    <g
       style="fill:#ffffff"
       id="mainPlayer-desktop-wide-view-8"
       transform="translate(-986,-560)">
      <g
         style="fill:#ffffff"
         id="button/share-7"
         transform="translate(986,560)">
        <g
           style="fill:#ffffff"
           id="Page-1-4">
          <mask
             id="mask-2-7"
             fill="white">
            <use
               height="100%"
               width="100%"
               y="0"
               x="0"
               xlink:href="#path-1-1"
               id="use4268" />
          </mask>
          <g
             style="fill:#ffffff"
             id="Clip-2-7" />
          <path
             style="fill:#ffffff"
             d="m 17.5,16.192115 c -0.886667,0 -1.68,0.345 -2.286667,0.8855 L 6.895,12.305115 c 0.058333,-0.2645 0.105,-0.529 0.105,-0.805 0,-0.276 -0.046667,-0.5405 -0.105,-0.805 l 8.225,-4.7265 c 0.63,0.575 1.458333,0.9315 2.38,0.9315 1.936667,0 3.5,-1.541 3.5,-3.45 0,-1.909 -1.563333,-3.45000000001 -3.5,-3.45000000001 -1.936667,0 -3.5,1.54100000001 -3.5,3.45000000001 0,0.276 0.04667,0.5405 0.105,0.805 l -8.225,4.7265 c -0.63,-0.575 -1.4583333,-0.9315 -2.38,-0.9315 -1.9366667,0 -3.5,1.541 -3.5,3.45 0,1.909 1.5633333,3.45 3.5,3.45 0.9216667,0 1.75,-0.3565 2.38,-0.9315 l 8.306667,4.784 c -0.05833,0.24035 -0.09333,0.4945 -0.09333,0.7475 0,1.8515 1.528334,3.358 3.406667,3.358 1.878333,0 3.406667,-1.5065 3.406667,-3.358 0,-1.8515 -1.528334,-3.358 -3.406667,-3.358"
             id="Fill-1-6"
             mask="url(#mask-2-7)"
             inkscape:connector-curvature="0" />
        </g>
      </g>
    </g>
  </g>
</svg>
